X: 61
T:Canadian Barn Dance
L:1/16
M:2/4
K:A
T:John MacFadyen of Melfort
|: va>f |"A"e2>A2 e>dc>B | "B7"A>a (g<a) (f<a)e>c | "D"A>AA>B (c<e)f>e | "E"c2B2 B2a>f |
|"A"e2>A2 e>dc>B | "B7"A>a (g<a) (f<a)"A"e>c | "D"A>AA>c B>cf>e | "A"({d}c2A2) {A}A2 :|
|: (c>d) | "F#m"e>fe>c A2a>g | "D"(f<a)f>e d2(c>d) | "A"e>fe>c A>cf>e | {d}"E"c2B2 B2(c>d) |
[1 "F#m"e>fe>c A2a>g | "D"(f<a)f>e d2(c>d) | "A"e>Ad>c "E"B>cf>e | "A" ({d}c2A2) {A}A2 :|
[2 "A"(c<e)(d<f) "A/G"(c<e)(B>c) | "B7"A>a (g<a) (f<a)e>c | "D"A>AA>c "E"B>cf>e | "A"({d}c2A2) {A}A2 |
|: e2 | "A"A2(c<e) A2c2 | "G/A"e>Aa>e f>e (c<A) | "D"e>c (B<c) A>cf>e | "E"{d}c2B2 B2a2 |
"A"A2(c<e) A2c2 | "G/A"e>Aa>e f>e (c<A) | "D"(c<e)A>c "E"B>cf>e | "A"({d}c2A2) {A}A2 :|
|: uf>g | "A"a>e (c<e) A>c (B<c) | "B7"e>Aa>e f>e (c<A) | "D"a>e (c<e) A>cf>e |
[1 {d}"E"c2B2 B2 (f>g) | "A"a>e (c<e) A>c (B<c) | "B7"e>Aa>e f>e (c<A) | "D"(c<e)A>c B>cf>e | "A"({d}c2A2) {A}A2 :|
[2 {d}"E"c2B2 B2 (c>d) | "A"(c>e)(d>f) (c>e)(B>c) | "B7"A>a (g>a) (f>a)e>c | "D"A>AA>c "E"B>cf>e | "A"({d}c2A2) {A}A2 |]
%%newpage

